app/[lang]/(home)/(new-home)/assets/db-appicons/pgicon.svg

<svg
  width="49"
  height="50"
  viewBox="0 0 49 50"
  fill="none"
  xmlns="http://www.w3.org/2000/svg"
>
  <path
    d="M35.0383 35.2468C35.3277 32.8382 35.2411 32.4847 37.035 32.8751L37.4904 32.9149C38.8699 32.9776 40.6746 32.693 41.7349 32.2004C44.0174 31.1412 45.3704 29.3734 43.1204 29.8376C37.987 30.8968 37.6341 29.1585 37.6341 29.1585C43.0548 21.1159 45.3206 10.9062 43.3644 8.4069C38.0297 1.59048 28.7955 4.8138 28.6411 4.89712L28.5916 4.90634C27.5774 4.69582 26.4423 4.57011 25.167 4.54946C22.844 4.51112 21.0814 5.15851 19.7442 6.17237C19.7442 6.17237 3.2707 -0.614567 4.03717 14.7076C4.20013 17.967 8.70902 39.3712 14.0872 32.9061C16.053 30.5421 17.9524 28.5432 17.9524 28.5432C18.8955 29.1696 20.0251 29.4896 21.2093 29.3745L21.3011 29.2964C21.2723 29.5899 21.2849 29.877 21.3376 30.217C19.9525 31.765 20.3595 32.0367 17.5897 32.6067C14.787 33.1841 16.4335 34.2123 17.5082 34.4811C18.8114 34.807 21.8261 35.2685 23.8634 32.4172L23.7823 32.7424C24.3257 33.1774 24.2892 35.8676 24.3659 37.7895C24.443 39.7118 24.5716 41.5054 24.9635 42.5631C25.3554 43.6205 25.8177 46.3443 29.458 45.5642C32.5003 44.9138 34.8263 43.9755 35.0383 35.2468Z"
    fill="#2971A4"
  />
  <path
    d="M28.2694 47.4663C26.6594 47.4663 25.6109 46.8436 24.9742 46.2423C24.0131 45.3353 23.6319 44.167 23.404 43.4691L23.3056 43.1779C22.847 41.9398 22.6914 40.1573 22.5992 37.8619C22.5852 37.5172 22.5756 37.1622 22.5649 36.7858C22.5572 36.5104 22.5476 36.1649 22.5336 35.8036C21.9535 36.0802 21.3379 36.2747 20.7042 36.3817C19.5691 36.5756 18.3488 36.513 17.0765 36.1948C16.1787 35.9703 15.246 35.505 14.7144 34.7865C13.1648 36.1435 11.6868 35.9596 10.8816 35.6908C9.46111 35.2171 8.18992 33.8858 6.99504 31.6217C6.14377 30.0088 5.32052 27.9073 4.54778 25.3753C3.20212 20.9659 2.34716 16.3217 2.27121 14.7969C2.03231 10.0244 3.31714 6.61122 6.08921 4.65318C10.4621 1.56443 17.0875 3.38089 19.5031 4.20561C21.126 3.22752 23.0353 2.75156 25.1928 2.78585C26.3516 2.80465 27.455 2.9064 28.4799 3.08927C29.5491 2.75303 31.6609 2.27044 34.0783 2.30067C38.5322 2.35376 42.223 4.08948 44.751 7.32018C46.5553 9.62513 45.6631 14.4655 44.9711 17.1457C43.9971 20.9158 42.2905 24.9255 40.1942 28.4161C40.7634 28.4202 41.5882 28.352 42.7606 28.1097C45.0736 27.6323 45.7501 28.8725 45.9337 29.4278C46.6692 31.6553 43.4721 33.3387 42.4748 33.8017C41.197 34.3949 39.1136 34.7562 37.4074 34.6781L37.3329 34.6733L36.8846 34.6338L36.8404 35.0077L36.7976 35.373C36.6829 39.7967 36.051 42.5983 34.7507 44.4494C33.3877 46.3901 31.4935 46.9339 29.8249 47.2915C29.2556 47.4132 28.7384 47.4663 28.2694 47.4663ZM24.8813 31.3659C25.9206 32.1976 26.0117 33.7626 26.0931 36.6873C26.1035 37.0523 26.113 37.3978 26.1259 37.7204C26.165 38.6974 26.2568 40.985 26.6152 41.9516C26.6657 42.0884 26.711 42.227 26.759 42.3741C27.1582 43.5967 27.3584 44.2098 29.0849 43.8407C30.5342 43.5299 31.2793 43.2512 31.8625 42.421C32.7101 41.2139 33.1842 38.7858 33.2712 35.2042L35.0346 35.2469L33.2834 35.0368L33.335 34.5995C33.5028 33.158 33.6237 32.1169 34.587 31.4282C35.3601 30.8759 36.2409 30.9294 36.9425 31.0558C36.1716 30.4733 35.9585 29.7902 35.9017 29.51L35.7546 28.7855L36.1679 28.1724C38.5484 24.6405 40.5113 20.2997 41.5539 16.2628C42.6252 12.1148 42.2986 9.91196 41.972 9.49536C37.6478 3.97003 30.1493 6.25139 29.3662 6.5102L29.2339 6.58172L28.5703 6.70523L28.2303 6.63481C27.2932 6.44015 26.252 6.3325 25.1361 6.31443C23.3826 6.28494 21.968 6.69933 20.8082 7.57936L20.0034 8.18951L19.0695 7.80498C17.0742 6.98911 11.2138 5.34887 8.12134 7.53917C6.40479 8.75506 5.62284 11.1374 5.79685 14.6203C5.85436 15.7702 6.63559 20.1231 7.92447 24.3448C9.70554 30.1791 11.324 32.1172 11.9998 32.3425C12.1178 32.3823 12.4238 32.1445 12.7283 31.7788C13.998 30.2567 15.3128 28.7727 16.6709 27.3289L17.6921 26.2542L18.9268 27.0745C19.4245 27.4052 19.9735 27.5929 20.5372 27.6283L23.4818 25.1168L23.0553 29.4702C23.0457 29.5679 23.0409 29.7009 23.0792 29.948L23.2075 30.7731L22.6508 31.3954L22.5867 31.4676L24.2044 32.2142L24.8813 31.3659Z"
    fill="#2971A4"
  />
  <path
    d="M43.121 29.8343C37.9872 30.8935 37.6344 29.1552 37.6344 29.1552C43.055 21.1122 45.3209 10.9021 43.3655 8.4036C38.0307 1.58754 28.7958 4.81086 28.6417 4.89455L28.5919 4.9034C27.5777 4.69289 26.4426 4.56754 25.1666 4.54689C22.8436 4.50892 21.0817 5.15594 19.7445 6.1698C19.7445 6.1698 3.27061 -0.616764 4.03672 14.705C4.19967 17.9648 8.70857 39.369 14.0868 32.9039C16.0526 30.5399 17.9516 28.541 17.9516 28.541C18.895 29.1674 20.0243 29.4874 21.2081 29.3723L21.3003 29.2942C21.2715 29.5877 21.2848 29.8748 21.3372 30.2148C19.9517 31.7628 20.3587 32.0345 17.5888 32.6045C14.7862 33.1819 16.4327 34.2101 17.5077 34.4789C18.8106 34.8048 21.8256 35.2664 23.8626 32.415L23.7811 32.7402C24.3242 33.1752 24.7054 35.5687 24.6416 37.7383C24.5774 39.908 24.5347 41.3978 24.9627 42.5613C25.3904 43.7249 25.8165 46.3424 29.4576 45.5623C32.4999 44.9105 34.0763 43.2209 34.2961 40.4027C34.4516 38.399 34.8037 38.6954 34.8262 36.904L35.109 36.0561C35.4349 33.34 35.1606 32.4641 37.0353 32.8714L37.4906 32.9113C38.8702 32.9739 40.6756 32.6893 41.7356 32.1968C44.0177 31.1383 45.3711 29.3701 43.121 29.8343Z"
    fill="#3B8CCD"
  />
  <path
    d="M28.4937 46.3667C25.4587 46.3667 24.4972 43.9633 24.1039 42.9804C23.528 41.54 23.4037 35.9502 23.532 31.3661C23.5339 31.2888 23.5511 31.2126 23.5826 31.142C23.6141 31.0713 23.6592 31.0076 23.7154 30.9545C23.7716 30.9014 23.8378 30.8599 23.9101 30.8325C23.9824 30.805 24.0594 30.7922 24.1367 30.7946C24.2139 30.7967 24.2899 30.814 24.3604 30.8455C24.431 30.877 24.4946 30.9222 24.5477 30.9783C24.6007 31.0344 24.6422 31.1004 24.6698 31.1726C24.6973 31.2448 24.7103 31.3217 24.7081 31.3989C24.5603 36.686 24.7701 41.4773 25.1962 42.5435C25.8613 44.2059 26.87 45.66 29.7217 45.0491C32.4289 44.4684 33.4428 43.442 33.8944 40.824C34.2409 38.8151 34.9263 33.0999 35.0107 31.9722C35.0164 31.8951 35.0372 31.8199 35.0719 31.7509C35.1067 31.6819 35.1547 31.6204 35.2133 31.57C35.2719 31.5196 35.3398 31.4812 35.4132 31.4571C35.4867 31.433 35.5641 31.4236 35.6412 31.4295C35.7967 31.4413 35.9411 31.5143 36.0429 31.6325C36.1446 31.7506 36.1953 31.9044 36.1839 32.0599C36.0957 33.2341 35.4137 38.9383 35.0539 41.0242C34.5208 44.1163 33.1423 45.5187 29.9684 46.1993C29.429 46.3147 28.939 46.3663 28.4937 46.3667ZM12.0375 34.6277C11.7722 34.6268 11.5088 34.5833 11.2574 34.4987C9.28608 33.841 7.40842 30.6306 5.67639 24.9555C4.35801 20.6358 3.52259 16.1269 3.44922 14.6614C3.23207 10.3169 4.35063 7.2433 6.77467 5.52639C11.57 2.12868 19.637 5.36417 19.978 5.50353C20.1225 5.56254 20.2376 5.67652 20.298 5.8204C20.3585 5.96428 20.3592 6.12627 20.3002 6.27074C20.2412 6.41521 20.1272 6.53032 19.9834 6.59075C19.8395 6.65117 19.6775 6.65197 19.533 6.59296C19.4552 6.56126 11.7197 3.46218 7.45229 6.48789C5.3796 7.95743 4.42805 10.6878 4.62382 14.6028C4.68539 15.8375 5.46587 20.238 6.80121 24.6119C8.34743 29.6783 10.1071 32.875 11.6294 33.3827C11.8683 33.4623 12.5953 33.7046 13.6346 32.4548C14.8466 30.9992 16.104 29.582 17.405 28.2054C17.5139 28.0968 17.6609 28.0352 17.8147 28.0336C17.9684 28.0321 18.1167 28.0908 18.2277 28.1972C18.3387 28.3036 18.4037 28.4492 18.4087 28.6029C18.4137 28.7565 18.3583 28.9061 18.2545 29.0194C18.2368 29.0379 16.4675 30.8875 14.5393 33.2072C13.6261 34.3055 12.7509 34.6277 12.0375 34.6277ZM37.6342 29.6709C37.5276 29.6708 37.423 29.6416 37.3316 29.5866C37.2402 29.5316 37.1655 29.4528 37.1154 29.3587C37.0654 29.2645 37.0419 29.1585 37.0474 29.052C37.0529 28.9455 37.0873 28.8425 37.1468 28.754C42.6264 20.6229 44.5498 10.7981 42.9026 8.69293C40.8292 6.04364 37.9015 4.66 34.2004 4.58C31.46 4.52101 29.2819 5.22075 28.9258 5.34279L28.8362 5.37928C28.4782 5.49173 28.2035 5.2956 28.0999 5.06628C28.0409 4.9349 28.0319 4.78644 28.0748 4.64891C28.1176 4.51138 28.2093 4.39429 28.3326 4.31971C28.3495 4.30976 28.4033 4.2869 28.4907 4.25483C29.0957 4.03325 31.307 3.36964 34.0459 3.40098C38.1411 3.44448 41.5241 5.02351 43.8283 7.96812C44.9185 9.36134 44.9211 12.571 43.8353 16.7747C42.7286 21.0605 40.6459 25.6664 38.122 29.4117C38.0092 29.5802 37.8233 29.6709 37.6342 29.6709ZM37.9144 33.4351C36.9787 33.4351 36.14 33.3031 35.6378 33.0022C35.1217 32.6929 35.0233 32.2726 35.0104 32.0496C34.8695 29.5758 36.2344 29.1452 36.9304 28.9487C36.8335 28.8019 36.6956 28.6294 36.5529 28.4513C36.147 27.944 35.591 27.2494 35.1626 26.2105C35.0955 26.0483 34.8854 25.6711 34.6421 25.2343C33.3226 22.8681 30.577 17.9445 32.3408 15.4231C33.157 14.2562 34.7825 13.7969 37.1774 14.0531C36.4729 11.9067 33.118 5.19237 25.1572 5.06186C22.763 5.02204 20.7994 5.75828 19.324 7.2481C16.0207 10.5842 16.1401 16.6205 16.142 16.681C16.144 16.7582 16.1308 16.8351 16.1031 16.9072C16.0754 16.9793 16.0338 17.0453 15.9807 17.1013C15.9275 17.1574 15.8638 17.2024 15.7933 17.2338C15.7227 17.2653 15.6466 17.2825 15.5694 17.2845C15.4922 17.2866 15.4153 17.2734 15.3432 17.2457C15.2711 17.218 15.2051 17.1764 15.1491 17.1232C15.093 17.0701 15.048 17.0064 15.0166 16.9358C14.9851 16.8653 14.9679 16.7892 14.9659 16.712C14.9585 16.444 14.8354 10.1094 18.4882 6.42005C20.1977 4.69355 22.4481 3.84117 25.1767 3.88578C30.2696 3.96947 33.5478 6.55868 35.4008 8.71579C37.4208 11.0668 38.411 13.6601 38.4925 14.5257C38.5533 15.1694 38.0914 15.2981 37.9981 15.3173L37.7857 15.3221C35.4354 14.9457 33.9276 15.207 33.3041 16.0978C31.9625 18.0152 34.5598 22.6727 35.6688 24.6617C35.952 25.169 36.1562 25.5358 36.2498 25.7622C36.6141 26.6455 37.0893 27.2391 37.4709 27.7162C37.8068 28.1357 38.0976 28.4996 38.2016 28.9265C38.2499 29.0113 38.9353 30.0252 43.0021 29.1857C44.0215 28.9756 44.6328 29.1551 44.8197 29.7203C45.1873 30.8319 43.1249 32.1285 41.9831 32.6586C40.96 33.1342 39.3272 33.4351 37.9144 33.4351ZM36.1831 31.9526C36.3122 32.0828 36.9577 32.3073 38.2945 32.2498C39.4831 32.1989 40.7366 31.9405 41.4887 31.5913C42.4506 31.1445 43.0928 30.6449 43.4254 30.3039L43.241 30.3378C40.6408 30.8746 38.8014 30.8031 37.7743 30.1251C37.7053 30.0795 37.6388 30.0301 37.5752 29.9773C37.4639 30.0211 37.361 30.0499 37.2877 30.0705C36.7052 30.2339 36.1027 30.4031 36.1831 31.9526ZM19.3856 35.2394C18.7396 35.2394 18.0598 35.1512 17.3656 34.9776C16.6463 34.7977 15.4337 34.2561 15.4522 33.3665C15.4732 32.3685 16.9247 32.0691 17.471 31.9567C19.4449 31.55 19.5736 31.3871 20.1904 30.6036C20.3703 30.3754 20.5941 30.0912 20.8993 29.7505C21.3524 29.2432 21.8476 28.9863 22.3711 28.9863C22.7357 28.9863 23.0347 29.1098 23.2323 29.192C23.862 29.453 24.3874 30.0842 24.6034 30.8389C24.7984 31.5198 24.7052 32.1753 24.3417 32.6844C23.1483 34.3556 21.4343 35.2394 19.3856 35.2394ZM16.723 33.417C16.9003 33.5541 17.2557 33.7374 17.6513 33.8362C18.2526 33.9866 18.8359 34.0629 19.3859 34.0629C21.0619 34.0629 22.4076 33.3691 23.3849 32.0006C23.5888 31.7152 23.5276 31.3528 23.4731 31.1622C23.3588 30.7629 23.0749 30.3998 22.7825 30.2785C22.624 30.2128 22.4924 30.1627 22.3715 30.1627C22.3066 30.1627 22.109 30.1627 21.7764 30.5347C21.5469 30.7928 21.3263 31.0586 21.115 31.3318C20.3467 32.3073 19.9946 32.6384 17.7088 33.1092C17.151 33.2234 16.8649 33.3399 16.723 33.417ZM21.2463 30.7036C21.1058 30.7033 20.9701 30.6529 20.8636 30.5613C20.7571 30.4698 20.6869 30.3432 20.6656 30.2044C20.651 30.1067 20.6411 30.0084 20.6361 29.9098C19.1378 29.8818 17.6922 29.2388 16.5947 28.0937C15.207 26.6459 14.5755 24.64 14.8623 22.5905C15.1738 20.3648 15.0573 18.4001 14.9946 17.3446C14.9773 17.0512 14.9648 16.8392 14.9655 16.6924C14.9666 16.5063 14.9703 16.0126 16.6205 15.1761C17.2074 14.8786 18.3842 14.3595 19.6698 14.2264C21.7996 14.0063 23.2036 14.9549 23.6238 16.8978C24.7583 22.1433 23.7138 24.4634 22.951 26.1578C22.8091 26.4734 22.6749 26.7713 22.5676 27.0599L22.4728 27.3143C22.0699 28.3949 21.7215 29.3284 21.8284 30.0256C21.8401 30.1019 21.8367 30.1798 21.8183 30.2549C21.7999 30.3299 21.767 30.4006 21.7213 30.4628C21.6755 30.5251 21.618 30.5778 21.5519 30.6178C21.4859 30.6579 21.4126 30.6845 21.3362 30.6962L21.2463 30.7036ZM16.1456 16.8554L16.1685 17.2753C16.2334 18.3718 16.3543 20.412 16.0269 22.7538C15.7906 24.4442 16.3068 26.094 17.4437 27.2797C18.3422 28.2168 19.5245 28.7341 20.7397 28.7341H20.7648C20.9008 28.1608 21.1268 27.5554 21.3701 26.9033L21.4641 26.6503C21.5854 26.3244 21.7274 26.0088 21.8778 25.6748C22.6118 24.0438 23.5258 22.0135 22.4732 17.1466C22.2649 16.1826 21.7595 15.6248 20.9288 15.4408C19.2226 15.064 16.6799 16.3474 16.1456 16.8554ZM19.696 16.6058C19.6665 16.8137 20.0768 17.369 20.6121 17.4431C21.1463 17.5179 21.6035 17.0836 21.6326 16.8757C21.6618 16.6677 21.2518 16.4384 20.7165 16.3639C20.1815 16.2895 19.7244 16.3979 19.696 16.6058ZM20.7349 17.6477L20.5849 17.6374C20.253 17.5913 19.9176 17.3822 19.6879 17.0777C19.6071 16.9708 19.4755 16.7636 19.5017 16.5785C19.5389 16.3072 19.87 16.1446 20.3865 16.1446C20.5019 16.1446 20.6221 16.1531 20.743 16.17C21.0254 16.2091 21.2875 16.2906 21.4811 16.3986C21.8166 16.5859 21.8413 16.7949 21.8262 16.903C21.7849 17.2027 21.3082 17.6477 20.7349 17.6477ZM19.891 16.6405C19.9076 16.7688 20.2254 17.192 20.6391 17.2491L20.7353 17.2558C21.1172 17.2558 21.4026 16.9553 21.4361 16.8569C21.4007 16.7898 21.1552 16.6231 20.6896 16.5582C20.5893 16.5439 20.4882 16.5366 20.3869 16.5365C20.0875 16.5365 19.9286 16.604 19.891 16.6405ZM35.9671 16.1815C35.9962 16.3894 35.5862 16.9446 35.0513 17.0191C34.5167 17.0936 34.0592 16.6596 34.0297 16.4517C34.0017 16.2438 34.4116 16.0141 34.9462 15.94C35.4808 15.8651 35.9376 15.9739 35.9671 16.1815ZM34.9278 17.1253C34.4131 17.1253 33.9689 16.7249 33.9324 16.465C33.89 16.1531 34.4035 15.916 34.9322 15.8426C35.0487 15.8264 35.1641 15.8183 35.2751 15.8183C35.7315 15.8183 36.0338 15.9521 36.064 16.1682C36.0836 16.3079 35.9763 16.5236 35.7916 16.7182C35.6695 16.8462 35.4133 17.0677 35.0642 17.116L34.9278 17.1253ZM35.2754 16.0144C35.1737 16.0144 35.0675 16.0222 34.9599 16.0369C34.4286 16.111 34.1115 16.3241 34.127 16.4384C34.1447 16.5641 34.4839 16.9295 34.9281 16.9295L35.0376 16.9218C35.3278 16.8816 35.5457 16.6921 35.6496 16.5829C35.813 16.4115 35.8779 16.25 35.8701 16.1951C35.8598 16.1221 35.6637 16.0144 35.2754 16.0144ZM36.7372 28.1228C36.6307 28.1229 36.5261 28.094 36.4347 28.0392C36.3433 27.9843 36.2685 27.9057 36.2183 27.8117C36.1682 27.7176 36.1446 27.6117 36.15 27.5053C36.1554 27.3988 36.1897 27.2959 36.2491 27.2074C37.5019 25.3364 37.2725 23.4285 37.051 21.5833C36.9562 20.7973 36.8589 19.9843 36.884 19.2042C36.9098 18.4016 37.0119 17.7395 37.1103 17.0991C37.2272 16.3404 37.3378 15.6237 37.2921 14.7727C37.2879 14.6956 37.299 14.6184 37.3247 14.5456C37.3503 14.4727 37.3901 14.4057 37.4417 14.3482C37.4933 14.2907 37.5557 14.2439 37.6253 14.2106C37.695 14.1772 37.7706 14.1579 37.8477 14.1537C37.9248 14.1496 38.002 14.1606 38.0748 14.1863C38.1477 14.212 38.2148 14.2517 38.2723 14.3033C38.3297 14.3549 38.3765 14.4173 38.4098 14.487C38.4432 14.5567 38.4625 14.6322 38.4667 14.7093C38.519 15.6819 38.3941 16.493 38.2731 17.2779C38.1799 17.8836 38.0833 18.51 38.06 19.2418C38.0375 19.9327 38.1257 20.6664 38.2189 21.4428C38.4549 23.4049 38.7222 25.6287 37.2268 27.8618C37.173 27.9422 37.1001 28.0081 37.0147 28.0537C36.9293 28.0992 36.834 28.1229 36.7372 28.1228Z"
    fill="white"
  />
</svg>

<svg xmlns="http://www.w3.org/2000/svg" fill="none" viewBox="0 0 49 50">
  <path
    fill="#2971A4"
    d="M35.04 35.25c.29-2.41.2-2.77 2-2.37l.45.03c1.38.07 3.18-.22 4.24-.71 2.29-1.06 3.64-2.83 1.39-2.36-5.13 1.06-5.49-.68-5.49-.68 5.42-8.04 7.7-18.25 5.73-20.75C38.03 1.59 28.8 4.8 28.64 4.9h-.05a18.3 18.3 0 0 0-3.42-.35 8.46 8.46 0 0 0-5.43 1.62S3.27-.6 4.04 14.71c.16 3.26 4.67 24.66 10.05 18.2 1.96-2.37 3.86-4.37 3.86-4.37.95.63 2.08.95 3.26.83l.1-.07c-.04.29-.03.58.03.92-1.39 1.55-.98 1.82-3.75 2.39-2.8.57-1.16 1.6-.08 1.87 1.3.33 4.32.79 6.35-2.06l-.08.32c.55.44.5 3.13.59 5.05.07 1.92.2 3.72.6 4.77.39 1.06.85 3.78 4.49 3 3.04-.65 5.37-1.58 5.58-10.31Z"
  />
  <path
    fill="#2971A4"
    d="M28.27 47.47a4.64 4.64 0 0 1-3.3-1.23c-.96-.9-1.34-2.07-1.57-2.77l-.1-.3c-.45-1.23-.6-3.01-.7-5.3l-.04-1.08-.03-.99c-.58.28-1.2.47-1.83.58a8.8 8.8 0 0 1-3.62-.19 4.23 4.23 0 0 1-2.37-1.4 3.79 3.79 0 0 1-3.83.9C9.46 35.22 8.2 33.9 7 31.62a36.5 36.5 0 0 1-2.45-6.24c-1.35-4.41-2.2-9.06-2.28-10.58C2.03 10.02 3.32 6.6 6.1 4.65c4.37-3.09 11-1.27 13.41-.44a10.5 10.5 0 0 1 5.7-1.42c1.15.01 2.25.12 3.28.3 1.07-.34 3.18-.82 5.6-.79 4.45.05 8.14 1.79 10.67 5.02 1.8 2.3.91 7.15.22 9.83a43.93 43.93 0 0 1-4.78 11.27c.57 0 1.4-.07 2.57-.31 2.31-.48 2.99.76 3.17 1.32.74 2.23-2.46 3.9-3.46 4.37-1.27.6-3.36.96-5.06.88h-.08l-.45-.05-.04.38-.04.36c-.12 4.43-.75 7.23-2.05 9.08-1.36 1.94-3.26 2.48-4.93 2.84-.56.12-1.08.18-1.55.18Zm-3.39-16.1c1.04.83 1.13 2.4 1.21 5.32l.04 1.03c.04.98.13 3.27.49 4.23l.14.42c.4 1.23.6 1.84 2.32 1.47 1.45-.31 2.2-.59 2.78-1.42.85-1.2 1.32-3.63 1.41-7.22l1.76.05-1.75-.21.05-.44c.17-1.44.3-2.48 1.26-3.17.77-.55 1.65-.5 2.35-.37a2.64 2.64 0 0 1-1.04-1.55l-.15-.72.42-.62a40.17 40.17 0 0 0 5.38-11.9c1.08-4.16.75-6.36.42-6.77-4.32-5.53-11.82-3.25-12.6-2.99l-.14.07-.66.13-.34-.08c-.94-.19-1.98-.3-3.1-.32a6.7 6.7 0 0 0-4.32 1.27l-.8.61-.94-.39c-2-.81-7.86-2.45-10.95-.26-1.72 1.22-2.5 3.6-2.32 7.08.05 1.15.84 5.5 2.12 9.72 1.79 5.84 3.4 7.78 4.08 8 .12.04.42-.2.73-.56a99.8 99.8 0 0 1 3.94-4.45l1.02-1.08 1.24.82c.5.34 1.04.52 1.6.56l2.95-2.51-.42 4.35c-.01.1-.02.23.02.48l.13.82-.56.63-.06.07 1.61.74.68-.84Z"
  />
  <path
    fill="#3B8CCD"
    d="M43.12 29.83c-5.13 1.06-5.49-.67-5.49-.67 5.42-8.05 7.7-18.26 5.74-20.76C38.03 1.6 28.8 4.81 28.64 4.9h-.05a18.3 18.3 0 0 0-3.42-.35 8.46 8.46 0 0 0-5.43 1.62S3.27-.62 4.04 14.71c.16 3.25 4.67 24.66 10.05 18.2 1.96-2.37 3.86-4.37 3.86-4.37.95.63 2.07.95 3.26.83l.09-.08c-.03.3-.02.58.04.92-1.39 1.55-.98 1.82-3.75 2.4-2.8.57-1.16 1.6-.08 1.87 1.3.32 4.32.79 6.35-2.06l-.08.32c.54.44.93 2.83.86 5-.06 2.17-.1 3.66.32 4.82.43 1.16.86 3.78 4.5 3 3.04-.65 4.62-2.34 4.84-5.16.15-2 .5-1.7.53-3.5l.28-.84c.32-2.72.05-3.6 1.93-3.19l.45.04c1.38.06 3.19-.22 4.25-.71 2.28-1.06 3.63-2.83 1.38-2.37Z"
  />
  <path
    fill="#fff"
    d="M28.5 46.37c-3.04 0-4-2.4-4.4-3.39-.57-1.44-.7-7.03-.57-11.61a.59.59 0 0 1 .83-.52.59.59 0 0 1 .35.55c-.15 5.29.06 10.08.49 11.14.66 1.67 1.67 3.12 4.52 2.5 2.7-.57 3.72-1.6 4.17-4.22.35-2 1.04-7.72 1.12-8.85a.59.59 0 1 1 1.17.09c-.08 1.17-.77 6.88-1.13 8.96-.53 3.1-1.9 4.5-5.08 5.18-.54.11-1.03.17-1.48.17ZM12.03 34.63c-.27 0-.53-.05-.78-.13-1.97-.66-3.85-3.87-5.58-9.54-1.32-4.32-2.16-8.83-2.23-10.3-.22-4.34.9-7.42 3.32-9.13 4.8-3.4 12.87-.17 13.2-.03a.59.59 0 1 1-.44 1.1c-.07-.04-7.81-3.14-12.08-.11-2.07 1.47-3.02 4.2-2.83 8.11.07 1.24.85 5.64 2.18 10.01 1.55 5.07 3.3 8.27 4.83 8.77.24.08.97.32 2-.93a90.42 90.42 0 0 1 3.78-4.24.59.59 0 0 1 .84.8c-.01.03-1.78 1.88-3.71 4.2-.91 1.1-1.79 1.42-2.5 1.42Zm25.6-4.96a.59.59 0 0 1-.5-.92c5.49-8.13 7.41-17.95 5.76-20.06-2.07-2.65-5-4.03-8.7-4.11-2.74-.06-4.92.64-5.27.76l-.1.04a.59.59 0 0 1-.5-1.06l.16-.07c.6-.22 2.82-.88 5.56-.85 4.1.04 7.47 1.62 9.78 4.57 1.09 1.4 1.1 4.6 0 8.8a42.63 42.63 0 0 1-5.7 12.64.59.59 0 0 1-.5.26Zm.27 3.77c-.93 0-1.77-.14-2.27-.44-.52-.3-.62-.73-.63-.95-.14-2.47 1.22-2.9 1.92-3.1-.1-.15-.23-.32-.38-.5-.4-.5-.96-1.2-1.39-2.24-.06-.16-.27-.54-.52-.98-1.32-2.36-4.06-7.29-2.3-9.8.82-1.17 2.44-1.63 4.84-1.38-.7-2.14-4.06-8.86-12.02-8.99-2.4-.04-4.36.7-5.84 2.19-3.3 3.33-3.18 9.37-3.18 9.43a.59.59 0 0 1-1.17.03c-.01-.27-.13-6.6 3.52-10.29a8.82 8.82 0 0 1 6.69-2.53c5.09.08 8.37 2.67 10.22 4.83 2.02 2.35 3.01 4.94 3.1 5.8.05.65-.4.78-.5.8h-.21c-2.35-.37-3.86-.11-4.49.78-1.34 1.92 1.26 6.57 2.37 8.56.28.5.49.88.58 1.1.36.89.84 1.48 1.22 1.96.34.42.63.78.73 1.2.05.1.74 1.1 4.8.27 1.02-.21 1.63-.03 1.82.53.37 1.11-1.7 2.4-2.84 2.94-1.02.47-2.65.78-4.07.78Zm-1.73-1.49c.13.13.78.36 2.11.3a9.33 9.33 0 0 0 3.2-.66c.96-.45 1.6-.95 1.94-1.29l-.19.04c-2.6.53-4.44.46-5.47-.21l-.2-.15-.28.09c-.58.16-1.19.33-1.1 1.88Zm-16.8 3.29c-.64 0-1.32-.09-2.01-.26-.72-.18-1.94-.72-1.92-1.61.02-1 1.47-1.3 2.02-1.41 1.97-.41 2.1-.57 2.72-1.36l.7-.85c.46-.5.96-.76 1.48-.76.37 0 .66.12.86.2.63.26 1.16.9 1.37 1.65.2.68.1 1.34-.26 1.84a5.87 5.87 0 0 1-4.95 2.56Zm-2.66-1.82c.18.13.54.32.93.42.6.15 1.19.22 1.74.22 1.67 0 3.02-.7 4-2.06.2-.28.14-.65.08-.84-.11-.4-.4-.76-.69-.88a1.15 1.15 0 0 0-.4-.12c-.07 0-.27 0-.6.37l-.67.8c-.76.98-1.12 1.3-3.4 1.78-.56.11-.85.23-.99.3Zm4.53-2.72a.59.59 0 0 1-.58-.5l-.03-.29a5.75 5.75 0 0 1-4.05-1.82 6.57 6.57 0 0 1-1.73-5.5c.31-2.23.2-4.19.13-5.25-.01-.29-.03-.5-.02-.65 0-.18 0-.68 1.65-1.51a9.2 9.2 0 0 1 3.05-.95c2.13-.22 3.53.72 3.95 2.67 1.14 5.24.1 7.56-.67 9.26-.14.31-.28.61-.38.9l-.1.25c-.4 1.08-.75 2.02-.64 2.72a.59.59 0 0 1-.5.67h-.08Zm-5.1-13.84.02.42c.06 1.1.18 3.13-.14 5.47a5.4 5.4 0 0 0 1.41 4.53c.9.94 2.08 1.45 3.3 1.45h.02c.14-.57.37-1.17.61-1.83l.1-.25c.12-.33.26-.64.4-.98.74-1.63 1.66-3.66.6-8.52-.2-.97-.71-1.53-1.54-1.7-1.7-.39-4.25.9-4.78 1.4Zm3.55-.25c-.03.2.38.76.91.83.54.08 1-.36 1.02-.56.03-.21-.38-.44-.91-.52-.54-.07-1 .04-1.02.25Zm1.03 1.04-.15-.01a1.41 1.41 0 0 1-.9-.56c-.07-.1-.2-.32-.18-.5.04-.27.37-.44.89-.44a2.59 2.59 0 0 1 1.1.26c.33.19.35.4.34.5-.05.3-.52.75-1.1.75Zm-.84-1c.02.12.34.54.75.6h.1c.38 0 .66-.3.7-.4-.04-.06-.28-.23-.75-.3l-.3-.01c-.3 0-.46.06-.5.1Zm16.08-.47c.03.2-.38.76-.92.84-.53.07-1-.36-1.02-.57-.03-.2.38-.44.92-.51.53-.07.99.03 1.02.24Zm-1.04.95c-.52 0-.96-.4-1-.66-.04-.32.47-.55 1-.63l.35-.02c.45 0 .75.13.78.35.02.14-.08.35-.27.55-.12.13-.38.35-.73.4h-.13Zm.35-1.12-.32.03c-.53.07-.85.28-.83.4.01.12.35.49.8.49h.1c.3-.05.52-.24.62-.35.16-.17.23-.33.22-.38-.01-.08-.2-.19-.6-.19Zm1.46 12.11a.59.59 0 0 1-.5-.91c1.26-1.87 1.03-3.78.81-5.63-.1-.78-.2-1.6-.17-2.38.03-.8.13-1.46.23-2.1.12-.76.23-1.48.18-2.33a.59.59 0 0 1 .98-.47.59.59 0 0 1 .2.4c.05.98-.08 1.8-.2 2.58-.09.6-.19 1.23-.21 1.96-.02.7.07 1.43.16 2.2.23 1.96.5 4.19-1 6.42a.59.59 0 0 1-.48.26Z"
  />
</svg>
